icons/hd-fill.svg

<svg xmlns="http://www.w3.org/2000/svg" width="24" height="24" fill="none"><g clip-path="url(#a)"><g><path fill="#121212" d="M3 3H21C21.2652 3 21.5196 3.10536 21.7071 3.29289C21.8946 3.48043 22 3.73478 22 4V20C22 20.2652 21.8946 20.5196 21.7071 20.7071C21.5196 20.8946 21.2652 21 21 21H3C2.73478 21 2.48043 20.8946 2.29289 20.7071C2.10536 20.5196 2 20.2652 2 20V4C2 3.73478 2.10536 3.48043 2.29289 3.29289C2.48043 3.10536 2.73478 3 3 3ZM7.5 11.25V9H6V15H7.5V12.75H9.5V15H11V9H9.5V11.25H7.5ZM14.5 10.5H16C16.1326 10.5 16.2598 10.5527 16.3536 10.6464C16.4473 10.7402 16.5 10.8674 16.5 11V13C16.5 13.1326 16.4473 13.2598 16.3536 13.3536C16.2598 13.4473 16.1326 13.5 16 13.5H14.5V10.5ZM13 9V15H16C16.5304 15 17.0391 14.7893 17.4142 14.4142C17.7893 14.0391 18 13.5304 18 13V11C18 10.4696 17.7893 9.96086 17.4142 9.58579C17.0391 9.21071 16.5304 9 16 9H13Z"/></g></g><defs><clipPath id="a"><rect width="24" height="24" fill="white"/></clipPath></defs></svg>

<svg width="24" height="24" fill="none" xmlns="http://www.w3.org/2000/svg"><g clip-path="url(#a)"><path d="M3 3h18a1 1 0 0 1 1 1v16a1 1 0 0 1-1 1H3a1 1 0 0 1-1-1V4a1 1 0 0 1 1-1Zm4.5 8.25V9H6v6h1.5v-2.25h2V15H11V9H9.5v2.25h-2Zm7-.75H16a.5.5 0 0 1 .5.5v2a.5.5 0 0 1-.5.5h-1.5v-3ZM13 9v6h3a2 2 0 0 0 2-2v-2a2 2 0 0 0-2-2h-3Z" /></g><defs><clipPath id="a"><path fill="#fff" d="M0 0h24v24H0z"/></clipPath></defs></svg>
